X:37
T:Liberty to the Sailors. RH.037
R:Jig
S:Rev.R.Harrison’s MS,c1815,Cumbria
O:England
A:Temple Sowerby,Cumbria
Z:vmp.Simon Wilson. Review PJH, 2008.
M:6/8
L:1/8
Q:3/8=120
K:D
f2e f2e|dfd A3|B2G B2G|FAF D2z|!
f2e f2e|dfd A2z|BAG F2D|E3 D2z:|!
|:DFA AFD|G2B B2z|Ace ecA|d2f f3|!
a2f a2f|dfd A3|BAG F2D|E3 D2z:|

